X:295
T: Sonny's Mazurka
C: Sonny Brogan
M: 3/4
L: 1/8
Q: 300
R: Mazurka
K: D
DF|A2 AG FA|d2 d2 AF|GF GB AG|FG EF DF|
A2 AG FA|d2 d2 AF|G2 Gg fe|d2-d2 :|
Ad|f2 fa gf|e2 eg fe|dc df ed|cd Bc Ad|
f2 fa gf|e2 eg fe|dc df ec|d2-d2 :|
